X:552
T: Abschied von Kln (251), S. 538
N: T0440
O: Luxemburg
S: Singendes Volk, Esch-Alzette, 1937 posth.]
N: Junglinster, hhh Nikolaus Hoffmann, 1890
R: Berufslied]
M: 3/4
L: 1/16
K: D
D2F2 | A4B4A3G | G2F2F2
F2E3F | G4B4A3G | F4z4
A2A2 | G2F2E4F2A2 | A2d2d2
d2c2BB | A3GB2A2G2A2 | F4z4

@@@ Tune index: 8606
